!!!ONB: MCCC : IJH0411_01 : Extracted Monophonic Melody
!!!COM: Haydn, Joseph
!!!OPR: String Quartet in B-flat major
!!!OMV: 1
!!!SCT: Hob.III:62 ; Op.55 No.3
!!!ODT: 1788///
**kern
*thru
*>A
*clefG2
*k[b-e-]
*B-:
*M3/4
2B-
4A
=1
2e-
4d
=2
2g
4f
=3
4e
4r
4r
=4
2ee-
4dd
=5
4cc
4dd
4b-
=6
4a
4b-
4b
=7
4cc
4r
4r
=8
2B-
4A
=9
2e-
4d
=10
2g
4f
=11
4a-
4r
4r
=12
2b
4cc
=13
4dd
4ff
8ee-
8cc
=14
2b-
8cc
8a
=15
4.b-
16cc
16dd
16ee-
16ff
16gg
16aa
=16
4bb-
4aa
4gg
=17
4ff
4aa-
4gg
=18
4ff
4ee-
4dd
=19
4cc
4cc
4cc
=20
4cc[
8.cc]
16dd-
8.cc
16dd-
=21
4cc
4cc
4cc
=22
4cc[
8.cc]
16dd-
8.cc
16dd-
=23
4cc
4cc
4cc
=24
8.cc
16dd-
8.cc
16dd-
8.cc
16dd-
=25
4cc
4r
4r
=26
2b-
4a
=27
2ee-
4dd
=28
2gg
4ff#
=29
4ccc
4bb-
4r
=30
4r
4cc
4cc
=31
4.cc
16dd
16ee
4ff
=32
8ff
8bb-
8bb-
8aa
8aa
8gg
=33
4gg
4gg
4gg
=34
8gg
8ccc
8ccc
8bb-
8bb-
8aa
=35
4aa
4aa
4aa
=36
8aa
8ddd
8ddd
8ccc
8ccc
8bb-
=37
8bb-
8aa
8aa
8gg
8gg
8ff
=38
8ff
8ee
8ee
8dd
8dd
8cc
=39
8cc
8b
2b
=40
2.b-
=41
8b-
8a
8a
8g
8dd
8g
=42
2f
8.g
16f
=43
4f
4b-
4b-
=44
4b-
4B-
4B-
=45
4B-
4B-
4B-
=46
4B-
4B-
4B-
=47
4B-
4B-
4B-
=48
4B-
4B-
4B-
=49
4B-
4B-
4B-
=50
4B-
4cc
4dd
=51
4ee-
2ee
=52
4ff
2ff#
=53
8gg
8aa
8bb-
8aa
8gg
8ff
=54
8ee
8ff
8gg
8cc
8dd
8ee
=55
4ff
4.ff
16gg
16aa
=56
4bb-
4ddd
4ddd
=57
2ddd
8ccc
8bb-
=58
2aa
16ff
16ee
16ff
16gg
=59
8aa-
8ee
8ff
8aa-
8bb
8ddd
=60
8fff
8ddd
8bb
8aa-
8ff
8dd
=61
8b
8a-
8f
8d
8B
8A-
=62
4.G
16A
16B-
16c
32d
32e
32f
32g
32a
32b-
=63
4cc
4a
4f
=64
4d
4b-
4g
=65
4c
4d
4e
=66
2g
4f
=67
2b-
4a
=68
2dd
4cc
=69
2bb-
16aa
16gg
16ff
16ee
=70
4ff
4r
8c
8f
=71
8e
8g
8b-
8dd
8cc
8e
=72
4f
4r
8cc
8ff
=73
8ee
8gg
8bb-
8ddd
8ccc
8ee
=74
4ff
4r
4r
=75
*>A
2B-
4A
=76
2e-
4d
=77
2g
4f
=78
4e
4r
4r
=79
2ee-
4dd
=80
4cc
4dd
4b-
=81
4a
4b-
4b
=82
4cc
4r
4r
=83
2B-
4A
=84
2e-
4d
=85
2g
4f
=86
4a-
4r
4r
=87
2b
4cc
=88
4dd
4ff
8ee-
8cc
=89
2b-
8cc
8a
=90
4.b-
16cc
16dd
16ee-
16ff
16gg
16aa
=91
4bb-
4aa
4gg
=92
4ff
4aa-
4gg
=93
4ff
4ee-
4dd
=94
4cc
4cc
4cc
=95
4cc[
8.cc]
16dd-
8.cc
16dd-
=96
4cc
4cc
4cc
=97
4cc[
8.cc]
16dd-
8.cc
16dd-
=98
4cc
4cc
4cc
=99
8.cc
16dd-
8.cc
16dd-
8.cc
16dd-
=100
4cc
4r
4r
=101
2b-
4a
=102
2ee-
4dd
=103
2gg
4ff#
=104
4ccc
4bb-
4r
=105
4r
4cc
4cc
=106
4.cc
16dd
16ee
4ff
=107
8ff
8bb-
8bb-
8aa
8aa
8gg
=108
4gg
4gg
4gg
=109
8gg
8ccc
8ccc
8bb-
8bb-
8aa
=110
4aa
4aa
4aa
=111
8aa
8ddd
8ddd
8ccc
8ccc
8bb-
=112
8bb-
8aa
8aa
8gg
8gg
8ff
=113
8ff
8ee
8ee
8dd
8dd
8cc
=114
8cc
8b
2b
=115
2.b-
=116
8b-
8a
8a
8g
8dd
8g
=117
2f
8.g
16f
=118
4f
4b-
4b-
=119
4b-
4B-
4B-
=120
4B-
4B-
4B-
=121
4B-
4B-
4B-
=122
4B-
4B-
4B-
=123
4B-
4B-
4B-
=124
4B-
4B-
4B-
=125
4B-
4cc
4dd
=126
4ee-
2ee
=127
4ff
2ff#
=128
8gg
8aa
8bb-
8aa
8gg
8ff
=129
8ee
8ff
8gg
8cc
8dd
8ee
=130
4ff
4.ff
16gg
16aa
=131
4bb-
4ddd
4ddd
=132
2ddd
8ccc
8bb-
=133
2aa
16ff
16ee
16ff
16gg
=134
8aa-
8ee
8ff
8aa-
8bb
8ddd
=135
8fff
8ddd
8bb
8aa-
8ff
8dd
=136
8b
8a-
8f
8d
8B
8A-
=137
4.G
16A
16B-
16c
32d
32e
32f
32g
32a
32b-
=138
4cc
4a
4f
=139
4d
4b-
4g
=140
4c
4d
4e
=141
2g
4f
=142
2b-
4a
=143
2dd
4cc
=144
2bb-
16aa
16gg
16ff
16ee
=145
4ff
4r
8c
8f
=146
8e
8g
8b-
8dd
8cc
8e
=147
4f
4r
8cc
8ff
=148
8ee
8gg
8bb-
8ddd
8ccc
8ee
=149
4ff
4r
4r
=150
*>B
2f#
4g
=151
2d
4e-
=152
2B
4c
=153
4G
2aa-
=154
4gg
4bb
4ccc
=155
4ddd
4ff
16ff
16ee-
16dd
16ee-
=156
4dd
8.dd
16ee-
8.dd
16ee-
=157
4dd
4r
4r
=158
2A-
4G
=159
2d-
4c
=160
2f
4e-
=161
4d
4r
4r
=162
2dd-
4cc
=163
4b-
4cc
4a-
=164
4g
4a-
4a
=165
4b-
4r
4r
=166
4r
4e-
4e-
=167
4.e-
16f
16g
4a-
=168
8a-
8dd-
8dd-
8cc
8cc
8b-
=169
4b-
4b-
4b-
=170
8b-
8ee-
8ee-
8dd-
8dd-
8cc
=171
4cc
4cc
4cc
=172
8cc
8aa-
8aa-
8gg
8gg
8ff
=173
8ff
8ee-
8ee-
8dd
8dd
8cc
=174
4b
4g
4g
=175
4g
4g
4g
=176
4g
4g
4g
=177
4g
4g
4g
=178
4g
4g
4g
=179
4g
4g
4g
=180
4g
4g
4a
=181
4b-
2b
=182
4cc
2cc#
=183
8dd
8ee-
8ff
8ee-
8dd
8cc
=184
8b
8aa-
8gg
8ff
8ee-
8dd
=185
8cc
8ee-
8gg
8ff
8ee-
8dd
=186
8cc
8gg
8ccc
8bb-
8aa
8gg
=187
8ff#
8gg
8aa
8gg
8ff#
8ee-
=188
8dd
8ee-
8dd
8cc
8b-
8a
=189
8b-
8gg
8gg
8ff#
8ff#
8aa
=190
8aa
8gg
8gg
8ff
8ff
8ee-
=191
8ee-
8dd
8dd
8ee-
8ee-
8dd
=192
8dd
8cc
8cc
8b
8b
8cc
=193
8cc
8b-
8b-
8a
8a
8g
=194
2.g
=195
2.g[
=196
2g]
8b-
8a
=197
8cc
8b
8dd
8ff
8aa-
8bb
=198
8ddd
8bb
8aa-
8ff
8dd
8b
=199
8dd
8cc
8ee-
8gg
8ccc
8eee-
=200
8ggg
8eee-
8ccc
8gg
8ee-
8cc
=201
8b-
8a
8eee-
8ccc
8aa
8ff
=202
8ee-
8cc
8a
8f
8e-
8c
=203
2B-
4A
=204
2e-
4d
=205
2g
4f
=206
4e
4r
4r
=207
2ee-
4dd
=208
4cc
4dd
4b-
=209
4a
4b-
4b
=210
4cc
4r
4r
=211
8B-
8c
8d
8e-
8e
8f
=212
8f#
8g
8a-
8a
8cc
8b-
=213
8b-
8ee-
8ee-
8dd
8dd
8cc
=214
4cc
4cc
4cc
=215
8cc
8gg
8gg
8ff
8ff
8ee
=216
8ee
8ddd
8ddd
8ccc
8ccc
8bb-
=217
2aa
4gg
=218
4ff
4dd
4cc
=219
8cc
8b-
8b-
8a
8a
8g
=220
8g
8dd
8dd
8cc
8cc
8g
=221
8a
8gg
8gg
8ff
8ff
8cc
=222
4dd
4r
4r
=223
2.r
=224
2.r
=225
2.r
=226
2ee-
4dd
=227
4cc
4dd
4ee-
=228
2b-
8dd
8cc
=229
8b-
8ee-
8ee-
8dd
8dd
8gg
=230
8gg
8ff
8ff
8bb-
8bb-
8aa
=231
8aa
8gg
8gg
8ff
8ff
8ee
=232
2.ee
=233
2.ee-
=234
8ee-
8dd
8dd
8cc
8gg
8cc
=235
2b-
8.cc
16b-
=236
4b-
4ee-
4ee-
=237
4ee-
4e-
4e-
=238
4e-
4e-
4e-
=239
4e-
4e-
4e-
=240
4e-
4e-
4e-
=241
4e-
4e-
4e-
=242
4e-
4e-
4e-
=243
4e-
4ff
4ee
=244
4ee-
2dd
=245
4cc
2b
=246
8cc
8dd
8ee-
8dd
8cc
8b-
=247
2.a
=248
4e-
4e-
4e-
=249
4gg-
4ff
4r
=250
4gg-
4ff
4r
=251
4aa-
4gg
4r
=252
4aa-
4gg
4r
=253
8ee
8ff
8gg
8ff
8ee
8ff
=254
8ee
8ff
8gg
8ff
8ee
8ff
=255
8ee
8ff
8aa
8gg
8bb-
8aa
=256
8ccc
8bb-
8gg
8ee
8cc
8b-
=257
8a
8b-
8dd
8cc
8ee-
8dd
=258
8ff
8ee-
8cc
8a
8f
8e-
=259
8d
8f
8b-
8f
8dd
8b-
=260
8a
8g
8ff#
8gg
8ee-
8cc
=261
4b-
4dd
4ff
=262
4f
4g
4a
=263
2cc
4b-
=264
2ee-
4dd
=265
2gg
4ff
=266
2eee-
16ddd
16ccc
16bb-
16aa
=267
4bb-
4r
8f
8b-
=268
8a
8cc
8ee-
8gg
8ff
8a
=269
4b-
4r
4r
=270
2.e-
=271
4d
4r
4r
==
*-
